X: 21
T: Steamboat Quickstep
R: jig
B: NEFR #21
Z: 1997 by John Chambers <jc:trillian.mit.edu>
M: 6/8
L: 1/8
K: A
|:"A"a2e c2A | Ace a2e | "D"agf "A"edc | "E7"Bed "A"cBA \
| "A"a2e c2A | Ace a2e | "D"agf "A"edc | "E7"BcB "A"A3 :|
|:"A"Ace ece | efe cBA | "D"Ade f2f | fga "E7"e3 \
| "A"Ace ece | efe cBA | "D"agf "A"edc | "E7"BcB "A"A3 :|
